images/customer-page-images/googlelogo.svg

<svg width="146" height="50" viewBox="0 0 146 50" fill="none" xmlns="http://www.w3.org/2000/svg">
<path d="M62.1304 25.6412C62.1304 32.5814 56.7681 37.6956 50.1874 37.6956C43.6067 37.6956 38.2444 32.5814 38.2444 25.6412C38.2444 18.6521 43.6067 13.5869 50.1874 13.5869C56.7681 13.5869 62.1304 18.6521 62.1304 25.6412ZM56.9023 25.6412C56.9023 21.3043 53.7945 18.3369 50.1874 18.3369C46.5803 18.3369 43.4725 21.3043 43.4725 25.6412C43.4725 29.9347 46.5803 32.9456 50.1874 32.9456C53.7945 32.9456 56.9023 29.9293 56.9023 25.6412Z" fill="#EA4335"/>
<path d="M87.8951 25.6412C87.8951 32.5814 82.5328 37.6956 75.952 37.6956C69.3713 37.6956 64.009 32.5814 64.009 25.6412C64.009 18.6575 69.3713 13.5869 75.952 13.5869C82.5328 13.5869 87.8951 18.6521 87.8951 25.6412ZM82.667 25.6412C82.667 21.3043 79.5591 18.3369 75.952 18.3369C72.345 18.3369 69.2371 21.3043 69.2371 25.6412C69.2371 29.9347 72.345 32.9456 75.952 32.9456C79.5591 32.9456 82.667 29.9293 82.667 25.6412Z" fill="#FBBC05"/>
<path d="M112.586 14.3151V35.9564C112.586 44.8586 107.401 48.4945 101.271 48.4945C95.501 48.4945 92.0281 44.5869 90.7184 41.3912L95.2702 39.4727C96.0807 41.4347 98.0667 43.7499 101.266 43.7499C105.19 43.7499 107.621 41.2988 107.621 36.6847V34.951H107.439C106.268 36.413 104.014 37.6901 101.169 37.6901C95.2165 37.6901 89.7629 32.4401 89.7629 25.6847C89.7629 18.8804 95.2165 13.5869 101.169 13.5869C104.009 13.5869 106.263 14.8641 107.439 16.2825H107.621V14.3206H112.586V14.3151ZM107.991 25.6847C107.991 21.4401 105.195 18.3369 101.636 18.3369C98.0291 18.3369 95.0071 21.4401 95.0071 25.6847C95.0071 29.8858 98.0291 32.9456 101.636 32.9456C105.195 32.9456 107.991 29.8858 107.991 25.6847Z" fill="#4285F4"/>
<path d="M120.772 1.6304V36.9565H115.673V1.6304H120.772Z" fill="#34A853"/>
<path d="M140.643 29.6087L144.701 32.3478C143.391 34.3097 140.235 37.6902 134.782 37.6902C128.018 37.6902 122.968 32.3967 122.968 25.6358C122.968 18.4674 128.061 13.5815 134.197 13.5815C140.375 13.5815 143.397 18.5597 144.384 21.25L144.927 22.6195L129.012 29.2934C130.23 31.7119 132.125 32.9456 134.782 32.9456C137.444 32.9456 139.291 31.6195 140.643 29.6087ZM128.153 25.2717L138.791 20.7989C138.206 19.2934 136.446 18.2445 134.374 18.2445C131.717 18.2445 128.018 20.6195 128.153 25.2717Z" fill="#EA4335"/>
<path d="M18.9426 22.5054V17.3913H35.9634C36.1298 18.2826 36.2156 19.3369 36.2156 20.4782C36.2156 24.3152 35.1797 29.0597 31.841 32.4402C28.5936 35.8641 24.4444 37.6902 18.9479 37.6902C8.76012 37.6902 0.193359 29.288 0.193359 18.9728C0.193359 8.65757 8.76012 0.255402 18.9479 0.255402C24.5839 0.255402 28.5989 2.49453 31.6156 5.41301L28.0514 9.02171C25.8883 6.96736 22.9576 5.36953 18.9426 5.36953C11.503 5.36953 5.68446 11.4402 5.68446 18.9728C5.68446 26.5054 11.503 32.5761 18.9426 32.5761C23.7681 32.5761 26.5163 30.6141 28.2769 28.8315C29.7047 27.3858 30.644 25.3206 31.0144 22.5L18.9426 22.5054Z" fill="#4285F4"/>
</svg>

<svg width="146" height="50" fill="none" xmlns="http://www.w3.org/2000/svg"><path d="M62.13 25.641c0 6.94-5.362 12.055-11.943 12.055-6.58 0-11.943-5.115-11.943-12.055 0-6.989 5.363-12.054 11.943-12.054 6.581 0 11.943 5.065 11.943 12.054zm-5.228 0c0-4.337-3.108-7.304-6.715-7.304-3.607 0-6.715 2.967-6.715 7.304 0 4.294 3.108 7.305 6.715 7.305 3.608 0 6.715-3.017 6.715-7.305z" fill="#EA4335"/><path d="M87.895 25.641c0 6.94-5.362 12.055-11.943 12.055-6.58 0-11.943-5.115-11.943-12.055 0-6.983 5.362-12.054 11.943-12.054 6.58 0 11.943 5.065 11.943 12.054zm-5.228 0c0-4.337-3.108-7.304-6.715-7.304-3.607 0-6.715 2.967-6.715 7.304 0 4.294 3.108 7.305 6.715 7.305 3.607 0 6.715-3.017 6.715-7.305z" fill="#FBBC05"/><path d="M112.586 14.315v21.641c0 8.903-5.185 12.538-11.315 12.538-5.77 0-9.243-3.907-10.553-7.103l4.552-1.918c.81 1.962 2.797 4.277 5.996 4.277 3.924 0 6.355-2.451 6.355-7.065V34.95h-.182c-1.171 1.462-3.425 2.74-6.27 2.74-5.953 0-11.406-5.25-11.406-12.006 0-6.805 5.453-12.098 11.406-12.098 2.84 0 5.094 1.277 6.27 2.695h.182v-1.961h4.965v-.006zm-4.595 11.37c0-4.245-2.796-7.348-6.355-7.348-3.607 0-6.629 3.103-6.629 7.348 0 4.2 3.022 7.26 6.629 7.26 3.559 0 6.355-3.06 6.355-7.26z" fill="#4285F4"/><path d="M120.772 1.63v35.326h-5.099V1.63h5.099z" fill="#34A853"/><path d="m140.643 29.609 4.058 2.739c-1.31 1.962-4.466 5.342-9.919 5.342-6.764 0-11.814-5.293-11.814-12.054 0-7.169 5.093-12.054 11.229-12.054 6.178 0 9.2 4.978 10.187 7.668l.543 1.37-15.915 6.673c1.218 2.419 3.113 3.653 5.77 3.653 2.662 0 4.509-1.326 5.861-3.337zm-12.49-4.337 10.638-4.473c-.585-1.506-2.345-2.555-4.417-2.555-2.657 0-6.356 2.375-6.221 7.028z" fill="#EA4335"/><path d="M18.943 22.505v-5.114h17.02c.167.892.253 1.946.253 3.087 0 3.837-1.036 8.582-4.375 11.962-3.247 3.424-7.397 5.25-12.893 5.25C8.76 37.69.193 29.288.193 18.973S8.76.255 18.948.255c5.636 0 9.65 2.24 12.668 5.158L28.05 9.022c-2.163-2.055-5.093-3.652-9.108-3.652-7.44 0-13.259 6.07-13.259 13.603 0 7.532 5.819 13.603 13.259 13.603 4.825 0 7.573-1.962 9.334-3.745 1.428-1.445 2.367-3.51 2.737-6.331l-12.071.005z" fill="#4285F4"/></svg>
